picto/business-zone-framed.svg

<svg class="color-immutable" width="30" height="30" viewBox="0 0 30 30" fill="none" xmlns="http://www.w3.org/2000/svg"><path d="M30 0H0V30H30V0Z" fill="#2D327D" stroke="#2D327D" stroke-miterlimit="10"/><path d="M25.5 3C26.325 3 27 3.675 27 4.5V25.5C27 26.325 26.325 27 25.5 27H4.5C3.675 27 3 26.325 3 25.5V4.5C3 3.675 3.675 3 4.5 3H25.5ZM25.5 2.625H4.5C3.46613 2.625 2.625 3.46613 2.625 4.5V25.5C2.625 26.5339 3.46613 27.375 4.5 27.375H25.5C26.5339 27.375 27.375 26.5339 27.375 25.5V4.5C27.375 3.46605 26.5339 2.625 25.5 2.625Z" fill="white"/><path d="M23.4584 14.6241H21.334C21.0511 14.6241 20.8221 14.8533 20.8221 15.136V20.2089C20.8221 20.4916 21.0511 20.7208 21.334 20.7208H23.4584C23.7411 20.7208 23.97 20.4916 23.97 20.2089V15.136C23.97 14.8533 23.7411 14.6241 23.4584 14.6241ZM22.3914 20.4286C22.2706 20.4265 22.1742 20.3227 22.1769 20.1967C22.1793 20.0704 22.2795 19.9703 22.4003 19.9721C22.5216 19.9741 22.6179 20.0781 22.6152 20.2043C22.6128 20.3302 22.5126 20.4307 22.3914 20.4286ZM23.5552 19.5793H21.237V15.1981H23.5552V19.5793Z" fill="white"/><path d="M19.0564 21.249C19.0564 21.2487 19.0564 21.2481 19.0564 21.2477V14.9439C19.0564 14.7676 18.9133 14.6241 18.7369 14.6241H7.84776C7.67143 14.6241 7.52826 14.7676 7.52826 14.9439V21.2477C7.52826 21.2481 7.52826 21.2486 7.52826 21.249L6.21838 23.5244C6.21838 23.5244 6.24253 24.0007 6.44248 23.9999H20.1421C20.3421 24.0006 20.3662 23.5244 20.3662 23.5244L19.0564 21.249ZM7.93611 15.0322H18.6486V21.1592H7.93611V15.0322ZM15.2738 23.5221H11.3109C11.2474 23.5221 11.2094 23.4723 11.2273 23.4111L11.3896 22.8409C11.4069 22.7797 11.4733 22.7296 11.5371 22.7296H15.0475C15.1114 22.7296 15.1777 22.7798 15.195 22.8409L15.3574 23.4111C15.3753 23.4723 15.3373 23.5221 15.2738 23.5221ZM19.1611 22.4494H7.42356C7.36026 22.4494 7.33348 22.404 7.36401 22.3482L7.73616 21.6704C7.76683 21.6148 7.84348 21.569 7.90693 21.569H18.6778C18.7412 21.569 18.8179 21.6147 18.8485 21.6704L19.2207 22.3482C19.2512 22.404 19.2244 22.4494 19.1611 22.4494Z" fill="white"/><path d="M6 6H7.01205C7.2294 6 7.39147 6.02715 7.49805 6.08152C7.59855 6.13282 7.67445 6.20715 7.72568 6.30457C7.76873 6.38662 7.79025 6.47377 7.79025 6.56602C7.79025 6.66855 7.76407 6.75982 7.7118 6.83977C7.65952 6.91972 7.58363 6.9828 7.48418 7.02893C7.57028 7.05765 7.63493 7.08788 7.67798 7.11968C7.82355 7.22633 7.89638 7.38165 7.89638 7.58572C7.89638 7.7067 7.86945 7.81537 7.8156 7.91182C7.76175 8.00827 7.68458 8.0856 7.58415 8.1441C7.4652 8.21385 7.3047 8.24873 7.10273 8.24873H6V6ZM6.49065 6.38603V6.9105H6.93975C7.04437 6.9105 7.12125 6.8982 7.17045 6.8736C7.26173 6.8295 7.30733 6.7536 7.30733 6.64597C7.30733 6.5547 7.2786 6.48855 7.22122 6.44753C7.16385 6.4065 7.06995 6.38603 6.93975 6.38603H6.49065ZM6.49065 7.24583V7.86263H6.98745C7.12995 7.86263 7.22993 7.8426 7.28738 7.80263C7.36328 7.74825 7.40122 7.66575 7.40122 7.55498C7.40122 7.42268 7.34993 7.33245 7.2474 7.2843C7.191 7.25865 7.09612 7.24583 6.96285 7.24583H6.49065Z" fill="white"/><path d="M9.70528 6.56909V8.24872H9.28078V8.00414C9.1526 8.19794 8.97313 8.29484 8.74243 8.29484C8.54143 8.29484 8.3897 8.22764 8.28718 8.09332C8.24818 8.04104 8.22028 7.97947 8.20333 7.90874C8.18638 7.83802 8.17798 7.74569 8.17798 7.63192V6.56909H8.624V7.49347C8.624 7.58984 8.62685 7.65802 8.63248 7.69807C8.6381 7.73812 8.64965 7.77187 8.66705 7.79962C8.71423 7.87447 8.7947 7.91189 8.90855 7.91189C9.04903 7.91189 9.15103 7.84987 9.21463 7.72582C9.24538 7.66529 9.26075 7.55609 9.26075 7.39822V6.56909H9.70528Z" fill="white"/><path d="M11.4156 7.05972H10.9973C10.9891 7.00227 10.9732 6.9587 10.9496 6.929C10.9034 6.86952 10.8178 6.83982 10.6927 6.83982C10.6137 6.83982 10.5527 6.85415 10.5097 6.88287C10.4666 6.9116 10.4451 6.9521 10.4451 7.00437C10.4451 7.05972 10.469 7.10022 10.5167 7.12587C10.5644 7.15152 10.6733 7.18175 10.8435 7.21662C11.0599 7.26072 11.2157 7.31555 11.3111 7.38117C11.4239 7.45805 11.4803 7.57497 11.4803 7.73187C11.4803 7.91135 11.4105 8.05025 11.2711 8.14872C11.1337 8.24615 10.9517 8.29482 10.7251 8.29482C10.4441 8.29482 10.238 8.2256 10.1068 8.08715C10.0186 7.9928 9.96938 7.8641 9.95911 7.70112H10.3867C10.3949 7.77702 10.4144 7.8344 10.4451 7.8734C10.5026 7.94315 10.5974 7.97802 10.7297 7.97802C10.8219 7.97802 10.8953 7.95927 10.9496 7.92185C11.004 7.88442 11.0312 7.83395 11.0312 7.77035C11.0312 7.7129 11.0078 7.67015 10.9612 7.64195C10.9145 7.61375 10.8158 7.58225 10.6651 7.54737C10.5195 7.51355 10.4165 7.48715 10.3559 7.46817C10.2954 7.4492 10.2411 7.4264 10.1929 7.3997C10.1303 7.36377 10.0817 7.3136 10.0468 7.24895C10.0119 7.1843 9.99451 7.1126 9.99451 7.03362C9.99451 6.85932 10.0668 6.7265 10.2114 6.63522C10.3293 6.56037 10.4934 6.52295 10.7036 6.52295C10.9814 6.52295 11.1809 6.59367 11.3019 6.7352C11.3674 6.81207 11.4053 6.92022 11.4156 7.05972Z" fill="white"/><path d="M12.1954 6V6.40147H11.7494V6H12.1954ZM12.1954 6.57217V8.24873H11.7494V6.57217H12.1954Z" fill="white"/><path d="M12.9753 6.5737V6.80905C13.0276 6.73727 13.0763 6.68447 13.1214 6.65065C13.2322 6.56455 13.3654 6.52142 13.5213 6.52142C13.6587 6.52142 13.7751 6.5563 13.8704 6.62605C13.9463 6.6814 13.9993 6.75137 14.0296 6.83597C14.0599 6.92057 14.075 7.03975 14.075 7.19357V8.24867H13.6305V7.2874C13.6305 7.1797 13.6213 7.1008 13.6028 7.05055C13.5854 7.00645 13.5556 6.97157 13.5136 6.94592C13.4654 6.91825 13.4106 6.90437 13.3491 6.90437C13.2814 6.90437 13.2199 6.9208 13.1645 6.95357C13.1092 6.98635 13.0681 7.03097 13.0414 7.08737C13.0117 7.15097 12.9968 7.2499 12.9968 7.38422V8.2486H12.5508V6.5737H12.9753Z" fill="white"/><path d="M15.9345 7.72572C15.911 7.82007 15.8684 7.90872 15.8069 7.99182C15.6592 8.1938 15.447 8.29482 15.1701 8.29482C14.9199 8.29482 14.7195 8.21585 14.5687 8.05797C14.4949 7.9811 14.4385 7.88825 14.3995 7.77957C14.3574 7.6637 14.3364 7.54272 14.3364 7.41657C14.3364 7.17252 14.4067 6.96747 14.5472 6.80135C14.7041 6.61572 14.9071 6.52295 15.1563 6.52295C15.3573 6.52295 15.5285 6.58497 15.67 6.70902C15.7716 6.7982 15.8454 6.90822 15.8915 7.03895C15.9376 7.16967 15.9607 7.334 15.9607 7.53192H14.7903C14.7944 7.61397 14.8072 7.68215 14.8287 7.73652C14.8893 7.88315 15.0041 7.9565 15.1733 7.9565C15.2563 7.9565 15.324 7.93827 15.3763 7.9019C15.4286 7.86552 15.4716 7.8068 15.5055 7.7258H15.9345V7.72572ZM15.5054 7.232C15.4972 7.151 15.4788 7.0838 15.45 7.03047C15.4213 6.9782 15.3806 6.93665 15.3277 6.9059C15.275 6.87515 15.2172 6.85977 15.1547 6.85977C15.0552 6.85977 14.9732 6.89307 14.9086 6.95975C14.844 7.02642 14.8056 7.11717 14.7933 7.232H15.5054Z" fill="white"/><path d="M17.6048 7.05972H17.1864C17.1782 7.00227 17.1623 6.9587 17.1387 6.929C17.0926 6.86952 17.0069 6.83982 16.8818 6.83982C16.8029 6.83982 16.7419 6.85415 16.6988 6.88287C16.6558 6.9116 16.6343 6.9521 16.6343 7.00437C16.6343 7.05972 16.6581 7.10022 16.7057 7.12587C16.7535 7.15152 16.8624 7.18175 17.0326 7.21662C17.249 7.26072 17.4048 7.31555 17.5001 7.38117C17.6129 7.45805 17.6693 7.57497 17.6693 7.73187C17.6693 7.91135 17.5996 8.05025 17.4602 8.14872C17.3228 8.24615 17.1407 8.29482 16.9142 8.29482C16.6332 8.29482 16.4271 8.2256 16.2959 8.08715C16.2077 7.9928 16.1585 7.8641 16.1482 7.70112H16.5758C16.5839 7.77702 16.6034 7.8344 16.6342 7.8734C16.6916 7.94315 16.7864 7.97802 16.9187 7.97802C17.011 7.97802 17.0843 7.95927 17.1387 7.92185C17.1931 7.88442 17.2202 7.83395 17.2202 7.77035C17.2202 7.7129 17.1968 7.67015 17.1503 7.64195C17.1035 7.61375 17.0049 7.58225 16.8542 7.54737C16.7086 7.51355 16.6055 7.48715 16.545 7.46817C16.4845 7.4492 16.4302 7.4264 16.382 7.3997C16.3194 7.36377 16.2707 7.3136 16.2359 7.24895C16.201 7.1843 16.1836 7.1126 16.1836 7.03362C16.1836 6.85932 16.2559 6.7265 16.4005 6.63522C16.5184 6.56037 16.6825 6.52295 16.8926 6.52295C17.1705 6.52295 17.3699 6.59367 17.491 6.7352C17.5566 6.81207 17.5946 6.92022 17.6048 7.05972Z" fill="white"/><path d="M19.3275 7.05972H18.9092C18.901 7.00227 18.8851 6.9587 18.8615 6.929C18.8154 6.86952 18.7297 6.83982 18.6046 6.83982C18.5256 6.83982 18.4647 6.85415 18.4216 6.88287C18.3786 6.9116 18.357 6.9521 18.357 7.00437C18.357 7.05972 18.3809 7.10022 18.4285 7.12587C18.4763 7.15152 18.5852 7.18175 18.7554 7.21662C18.9717 7.26072 19.1276 7.31555 19.2229 7.38117C19.3357 7.45805 19.3921 7.57497 19.3921 7.73187C19.3921 7.91135 19.3224 8.05025 19.1829 8.14872C19.0455 8.24615 18.8635 8.29482 18.6369 8.29482C18.356 8.29482 18.1499 8.2256 18.0186 8.08715C17.9304 7.9928 17.8812 7.8641 17.871 7.70112H18.2985C18.3067 7.77702 18.3262 7.8344 18.357 7.8734C18.4144 7.94315 18.5092 7.97802 18.6415 7.97802C18.7338 7.97802 18.8071 7.95927 18.8615 7.92185C18.9159 7.88442 18.943 7.83395 18.943 7.77035C18.943 7.7129 18.9196 7.67015 18.873 7.64195C18.8263 7.61375 18.7277 7.58225 18.5769 7.54737C18.4314 7.51355 18.3283 7.48715 18.2678 7.46817C18.2073 7.4492 18.153 7.4264 18.1047 7.3997C18.0422 7.36377 17.9935 7.3136 17.9586 7.24895C17.9238 7.1843 17.9064 7.1126 17.9064 7.03362C17.9064 6.85932 17.9787 6.7265 18.1233 6.63522C18.2412 6.56037 18.4053 6.52295 18.6154 6.52295C18.8933 6.52295 19.0927 6.59367 19.2138 6.7352C19.2794 6.81207 19.3173 6.92022 19.3275 7.05972Z" fill="white"/></svg>

<svg class="color-immutable" width="30" height="30" viewBox="0 0 30 30" fill="none" xmlns="http://www.w3.org/2000/svg"><g clip-path="url(#a)"><path d="M30 0H0v30h30V0Z" fill="#2D327D" stroke="#2D327D" stroke-miterlimit="10"/><path d="M25.5 3c.825 0 1.5.675 1.5 1.5v21c0 .825-.675 1.5-1.5 1.5h-21c-.825 0-1.5-.675-1.5-1.5v-21C3 3.675 3.675 3 4.5 3h21Zm0-.375h-21A1.877 1.877 0 0 0 2.625 4.5v21c0 1.034.841 1.875 1.875 1.875h21a1.877 1.877 0 0 0 1.875-1.875v-21A1.877 1.877 0 0 0 25.5 2.625Z" fill="#fff"/><path d="M23.458 14.624h-2.124a.512.512 0 0 0-.512.512v5.073c0 .283.23.512.512.512h2.124c.283 0 .512-.23.512-.512v-5.073a.512.512 0 0 0-.512-.512Zm-1.067 5.805a.223.223 0 0 1-.214-.232.225.225 0 0 1 .223-.225.223.223 0 0 1 .215.232.224.224 0 0 1-.224.225Zm1.164-.85h-2.318V15.2h2.318v4.38ZM19.056 21.249V14.944a.32.32 0 0 0-.32-.32H7.849a.32.32 0 0 0-.32.32V21.249l-1.31 2.275s.025.477.224.476h13.7c.2 0 .224-.476.224-.476l-1.31-2.275Zm-11.12-6.217H18.65v6.127H7.936v-6.127Zm7.338 8.49H11.31c-.064 0-.102-.05-.084-.11l.163-.571a.162.162 0 0 1 .147-.111h3.51c.064 0 .13.05.148.11l.162.571c.018.061-.02.111-.083.111Zm3.887-1.073H7.424c-.064 0-.09-.045-.06-.1l.372-.679a.216.216 0 0 1 .17-.101h10.772c.063 0 .14.046.17.101l.373.678c.03.056.003.101-.06.101ZM6 6h1.012c.217 0 .38.027.486.082.1.05.176.125.228.223.043.082.064.169.064.261a.49.49 0 0 1-.306.463c.086.029.15.059.194.09.146.107.218.263.218.467a.61.61 0 0 1-.312.558c-.119.07-.28.105-.481.105H6V6Zm.49.386v.524h.45a.542.542 0 0 0 .23-.036c.092-.044.137-.12.137-.228 0-.091-.028-.157-.086-.198-.057-.042-.151-.062-.281-.062h-.45Zm0 .86v.617h.497c.143 0 .243-.02.3-.06.076-.055.114-.137.114-.248 0-.132-.051-.223-.154-.27a.749.749 0 0 0-.284-.04H6.49ZM9.705 6.57v1.679h-.424v-.245a.61.61 0 0 1-.539.29c-.2 0-.352-.066-.455-.2a.5.5 0 0 1-.084-.185 1.227 1.227 0 0 1-.025-.277V6.569h.446v.924c0 .097.003.165.008.205.006.04.018.074.035.102.047.074.128.112.242.112a.32.32 0 0 0 .306-.186c.03-.06.046-.17.046-.328V6.57h.444ZM11.416 7.06h-.419a.27.27 0 0 0-.047-.131c-.047-.06-.132-.09-.257-.09a.328.328 0 0 0-.183.044.138.138 0 0 0-.065.121c0 .056.024.096.072.122.047.026.156.056.327.09.216.045.372.1.467.165.113.077.17.194.17.35a.48.48 0 0 1-.21.418c-.137.097-.32.146-.546.146-.28 0-.487-.07-.618-.208a.601.601 0 0 1-.148-.386h.428a.335.335 0 0 0 .058.172c.058.07.152.105.285.105a.382.382 0 0 0 .22-.056.175.175 0 0 0 .081-.152.14.14 0 0 0-.07-.128 1.203 1.203 0 0 0-.296-.095 4.852 4.852 0 0 1-.31-.079.877.877 0 0 1-.162-.068.376.376 0 0 1-.146-.151.446.446 0 0 1-.052-.215c0-.175.072-.308.216-.399.118-.075.282-.112.493-.112.277 0 .477.07.598.212a.55.55 0 0 1 .114.325ZM12.195 6v.401h-.446V6h.446Zm0 .572V8.25h-.446V6.572h.446ZM12.975 6.574v.235a.632.632 0 0 1 .546-.288c.138 0 .254.035.35.105a.438.438 0 0 1 .159.21c.03.085.045.204.045.358v1.055h-.444v-.962a.74.74 0 0 0-.028-.236.211.211 0 0 0-.09-.105.356.356 0 0 0-.35.008.304.304 0 0 0-.122.133.74.74 0 0 0-.044.297v.865h-.446V6.574h.424ZM15.934 7.726a.75.75 0 0 1-.127.266c-.148.202-.36.303-.637.303-.25 0-.45-.08-.601-.237a.773.773 0 0 1-.17-.278 1.055 1.055 0 0 1-.063-.363c0-.244.07-.45.211-.616a.76.76 0 0 1 .61-.278c.2 0 .371.062.513.186.102.09.175.2.222.33.046.13.069.295.069.493h-1.17a.65.65 0 0 0 .038.205c.06.146.175.22.344.22.083 0 .151-.019.203-.055a.39.39 0 0 0 .13-.176h.428Zm-.429-.494a.537.537 0 0 0-.055-.202.338.338 0 0 0-.295-.17c-.1 0-.182.033-.246.1a.446.446 0 0 0-.116.272h.712ZM17.605 7.06h-.419a.27.27 0 0 0-.047-.131c-.046-.06-.132-.09-.257-.09a.329.329 0 0 0-.183.044.138.138 0 0 0-.065.121c0 .056.024.096.072.122a1.5 1.5 0 0 0 .327.09c.216.045.372.1.467.165.113.077.17.194.17.35a.48.48 0 0 1-.21.418c-.137.097-.32.146-.546.146-.28 0-.487-.07-.618-.208a.601.601 0 0 1-.148-.386h.428a.333.333 0 0 0 .058.172c.058.07.152.105.285.105a.382.382 0 0 0 .22-.056.175.175 0 0 0 .081-.152.14.14 0 0 0-.07-.128 1.205 1.205 0 0 0-.296-.095 4.833 4.833 0 0 1-.309-.079.877.877 0 0 1-.163-.068.375.375 0 0 1-.146-.151.446.446 0 0 1-.052-.215c0-.175.072-.308.216-.399.118-.075.283-.112.493-.112.277 0 .477.07.598.212a.55.55 0 0 1 .114.325ZM19.328 7.06h-.419a.27.27 0 0 0-.047-.131c-.047-.06-.132-.09-.257-.09a.328.328 0 0 0-.183.044.138.138 0 0 0-.065.121c0 .056.024.096.072.122a1.5 1.5 0 0 0 .326.09c.217.045.373.1.468.165.113.077.17.194.17.35a.48.48 0 0 1-.21.418c-.137.097-.32.146-.546.146-.281 0-.487-.07-.618-.208a.6.6 0 0 1-.148-.386h.428a.334.334 0 0 0 .058.172c.057.07.152.105.285.105a.382.382 0 0 0 .22-.056.175.175 0 0 0 .081-.152.14.14 0 0 0-.07-.128 1.202 1.202 0 0 0-.296-.095 4.844 4.844 0 0 1-.31-.079.881.881 0 0 1-.162-.068.376.376 0 0 1-.146-.151.447.447 0 0 1-.053-.215c0-.175.073-.308.217-.399.118-.075.282-.112.492-.112.278 0 .478.07.599.212a.55.55 0 0 1 .114.325Z" fill="#fff"/></g><defs><clipPath id="a"><path fill="#fff" d="M0 0h30v30H0z"/></clipPath></defs></svg>
